lib/brands/icons/smart-square.svg

<svg xmlns="http://www.w3.org/2000/svg" fill="none" aria-hidden="true" viewBox="0 0 48 48"><g id="smart-square-Icon"><g id="Union"><path fill="#80CDF3" d="M23.3039 25.9571L22.1704 26.0536C21.7363 26.1018 21.3504 25.7642 21.3022 25.3301L20.1928 12.6445C20.1446 12.2104 20.4822 11.8245 20.9163 11.7763L33.6019 10.6669H33.6743C34.0843 10.6669 34.4219 10.9804 34.4701 11.3904L35.0731 18.2879L36.3513 18.1673L35.7483 11.2698C35.6519 10.1604 34.6389 9.29221 33.5054 9.38868L20.8198 10.4981C19.6863 10.5945 18.8422 11.6075 18.9387 12.741L20.0481 25.4266C20.1446 26.4877 21.0369 27.3077 22.098 27.3077H22.2669L23.4968 27.1871L23.3039 25.9571Z"/><path fill="#80CDF3" d="M36.8577 23.9554L36.5683 20.6996L35.29 20.8202L35.5795 24.076C35.6036 24.2931 35.5312 24.486 35.3865 24.6548C35.2418 24.8236 35.0489 24.9201 34.8559 24.9442L25.8361 25.7401L26.0532 26.9942L34.9765 26.2224C36.11 26.1019 36.9541 25.0889 36.8577 23.9554Z"/><path fill="#80CDF3" d="M26.5835 33.6023L24.1476 19.8073C23.9547 18.7461 23.0382 17.9744 21.9771 17.9744C21.8565 17.9744 21.7118 17.9744 21.5912 17.9985L21.3259 18.0467L21.4465 19.3249L21.8324 19.2526C21.8541 19.2526 21.8757 19.2477 21.8996 19.2424C21.9289 19.2358 21.9614 19.2285 22.0012 19.2285C22.4594 19.2285 22.8453 19.5661 22.9177 20.0002L25.3535 33.7952C25.45 34.3017 25.1123 34.784 24.6059 34.8805L10.8109 37.3163C10.3044 37.4128 9.82205 37.051 9.72558 36.5687L7.28975 22.7737C7.19329 22.2672 7.53093 21.7849 8.03738 21.6884L18.9383 19.7591L18.8177 18.4808L7.82033 20.4102C6.61447 20.6273 5.81861 21.7608 6.03566 22.9666L8.44738 36.7857C8.64031 37.8469 9.55676 38.6186 10.6179 38.6186C10.7385 38.6186 10.8832 38.6186 11.0038 38.5945L24.7988 36.1587C25.9805 35.9416 26.8005 34.784 26.5835 33.6023Z"/><path fill="#80CDF3" d="M41.9945 28.6824L41.2469 20.0002C41.1745 19.132 40.3787 18.4567 39.5104 18.5291L30.8283 19.2767C29.9359 19.349 29.2848 20.1449 29.3571 21.0372L29.6707 24.7271L30.9489 24.6066L30.6353 20.9166C30.6112 20.7237 30.7559 20.5549 30.9489 20.5549L39.631 19.8073H39.6551C39.824 19.8073 39.9687 19.952 39.9928 20.1208L40.7404 28.803C40.7645 28.9959 40.6198 29.1647 40.4269 29.1647L31.7447 29.9123C31.5518 29.9364 31.383 29.7917 31.383 29.5988L31.1659 27.163L29.8877 27.2836L30.1048 29.7194C30.1771 30.5394 30.8765 31.1905 31.7206 31.1905H31.8653L40.5475 30.4429C41.4157 30.3706 42.0669 29.5747 41.9945 28.6824Z"/></g></g></svg>

<svg xmlns="http://www.w3.org/2000/svg" fill="none" aria-hidden="true" viewBox="0 0 48 48"><g fill="#80CDF3"><path d="m23.304 25.957-1.134.097c-.434.048-.82-.29-.868-.724l-1.11-12.685c-.047-.435.29-.82.724-.869l12.686-1.11h.072c.41 0 .748.314.796.724l.603 6.898 1.278-.12-.603-6.898a2.094 2.094 0 0 0-2.243-1.881l-12.685 1.11a2.077 2.077 0 0 0-1.881 2.242l1.11 12.686a2.068 2.068 0 0 0 2.049 1.88h.169l1.23-.12-.193-1.23Zm13.554-2.002-.29-3.255-1.278.12.29 3.256a.74.74 0 0 1-.194.579.838.838 0 0 1-.53.29l-9.02.795.217 1.254 8.924-.772a2.114 2.114 0 0 0 1.88-2.267Z"/><path d="m26.584 33.602-2.436-13.795a2.22 2.22 0 0 0-2.17-1.833c-.122 0-.266 0-.387.024l-.265.049.12 1.278.386-.072c.022 0 .044-.005.068-.01a.44.44 0 0 1 .101-.014c.458 0 .844.337.917.771l2.436 13.795a.93.93 0 0 1-.748 1.085L10.81 37.316c-.507.097-.989-.265-1.085-.747L7.29 22.774a.93.93 0 0 1 .747-1.086l10.901-1.929-.12-1.278L7.82 20.41a2.195 2.195 0 0 0-1.784 2.556l2.411 13.819a2.22 2.22 0 0 0 2.17 1.833c.121 0 .266 0 .387-.025l13.795-2.435c1.181-.217 2.002-1.375 1.785-2.557Zm15.411-4.92L41.247 20a1.632 1.632 0 0 0-1.737-1.47l-8.682.747c-.892.072-1.543.868-1.47 1.76l.313 3.69 1.278-.12-.314-3.69a.318.318 0 0 1 .314-.362l8.682-.748h.024c.169 0 .314.145.338.314l.747 8.682a.317.317 0 0 1-.313.362l-8.682.747a.317.317 0 0 1-.362-.313l-.217-2.436-1.278.12.217 2.436c.072.82.771 1.471 1.616 1.471h.144l8.683-.747c.868-.072 1.519-.868 1.447-1.76Z"/></g></svg>
